X:126
T:La Farruquina
M:4/4
L:1/8
K:D
 |:d2 AB AB c2 | d2 A2 B2 c2 | d2 cded cB | A2 F2 AGFE |
 | D2 E2 FEFG |A2 ABcd cA |B2 A6| A6 DE |
 | F3 D FDFA | GFED C3 E | F G3 EGEG | BAGF E D2 D|
 | E F3 DFDF |  A GFEDC3 | EF GFED CD| EF AGFE D2:|
